X: 111
T:Philips's Hornpipe. JMT.106
M:4/4
L:1/8
S:J.Moore,Tyneside,1841.(75a)
R:Hornpipe
O:England
A:Northumbria
N:Untittled in this collection, but "Philips's HP" in J.Moore of
N:Shropshire
Z:vmp.Chris Partington
K:D
Ac|d2fd c-dBc|A-BAG F-DFA|B-GBd c-Ace|d-faf g-fge|d2fd c-dBc|!A-BAG F-DF
A|B-GBd c-Ace|d2d2d2:|
|:ag|f-afd f-afd|g-bge g-bge|!f-afd f-afd|edcBA2ag|f-afd f-afd|g-bge g-b
ge|f-edc B-gec|d2d2d2:|]
